X:1
T:Mike Power's Jig
M:6/8
L:1/8
O:Unknown
S: Malcolm Douglas <malcolm.douglas:blueyonder.co.uk> tradtunes 2004-2-23
K:A
e|:a2c'e2a|c2eA2c|Bcd Bcd|efec2e|a2c'e2a|c2eA2c|Bcd efg|a3a2e:|
:a2ag2g|fefe2c|e2eefg|a3a2e|a2ag2g|f2fe2c|e2e efg|a3a2e:|]
